X: 18281
T: Humours Of Scarriff, The
R: reel
M: 4/4
K: Ddorian
Adde f2 ed|AcGc AcGc|Adde f2 ed|cAGE ED D2:|
ecgc acgc|ecgc eaag|ecgc acgc|edcd ed d2|
ecgc acgc|ecgc eaag|a2 ag efed|cAGE ED D2||

